X: 372
M:C
L:1/8
K:F#m
f | f/2e/2d/2c/2 a>c b>c a2 | (f/2e/2)d/2c/2 ac (fe)dc | (f<b)b>f (b/2a/2)g/2f/2 b2 | fbbf (ag)(fa) |
(f/2e/2)d/2c/2 a>c b>c a2 | (f/2e/2)d/2c/2 ac (fe)dc | d/2e/2f/2g/2 a/2g/2f/2e/2 f/2e/2d/2c/2 d/2c/2B/2A/2 | TB>c d/2c/2B/2A/2 {/G}F2 F |]


